X: 1119
T: Light and Airy!
R:slip jig
N:"Collected by O'Reilly"
B:O'Neill's 1119
Z:Transcribed by Michael Hogan
M:9/8
L:1/8
K:A
c2A A2A czA | Bcd ecA Bcd | c2A A2A czA | B2=G GzA Bcd :|
e3 ^d2e czA | Bcd ecA Bcd | e3 ^d2e czA | Bz=G G2A Bcd |
e3 ^d2e czA | Bcd ecA Bcd | e3 f3 =g3 | BzG G2A Bcd ||


